svgs/regular/arrow-down-up-lock.svg

<svg xmlns="http://www.w3.org/2000/svg" viewBox="0 0 640 512"><!--! Font Awesome Pro 6.6.0 by @fontawesome - https://fontawesome.com License - https://fontawesome.com/license (Commercial License) Copyright 2024 Fonticons, Inc. --><path d="M145 505l96-96c9.4-9.4 9.4-24.6 0-33.9s-24.6-9.4-33.9 0l-55 55L152 280l264 0 0-8c0-14.1 2.6-27.6 7.4-40L344 232l0-150.1 55 55c9.4 9.4 24.6 9.4 33.9 0s9.4-24.6 0-33.9L337 7c-4.5-4.5-10.6-7-17-7s-12.5 2.5-17 7l-96 96c-9.4 9.4-9.4 24.6 0 33.9s24.6 9.4 33.9 0l55-55L296 232l-144 0-48 0-80 0c-13.3 0-24 10.7-24 24s10.7 24 24 24l80 0 0 150.1L49 375c-9.4-9.4-24.6-9.4-33.9 0s-9.4 24.6 0 33.9l96 96c9.4 9.4 24.6 9.4 33.9 0zm7-313l0-136c0-13.3-10.7-24-24-24s-24 10.7-24 24l0 136 48 0zM296 320l0 136c0 13.3 10.7 24 24 24s24-10.7 24-24l0-136-48 0zm232-80c17.7 0 32 14.3 32 32l0 48-64 0 0-48c0-17.7 14.3-32 32-32zm-80 32l0 48c-17.7 0-32 14.3-32 32l0 128c0 17.7 14.3 32 32 32l160 0c17.7 0 32-14.3 32-32l0-128c0-17.7-14.3-32-32-32l0-48c0-44.2-35.8-80-80-80s-80 35.8-80 80z"/></svg>

<svg xmlns="http://www.w3.org/2000/svg" viewBox="0 0 640 512"><!--! Font Awesome Pro 6.4.2 by @fontawesome - https://fontawesome.com License - https://fontawesome.com/license (Commercial License) Copyright 2023 Fonticons, Inc. --><path d="M145 505l96-96c9.4-9.4 9.4-24.6 0-33.9s-24.6-9.4-33.9 0l-55 55V280H416v-8c0-14.1 2.6-27.6 7.4-40H344V81.9l55 55c9.4 9.4 24.6 9.4 33.9 0s9.4-24.6 0-33.9L337 7c-4.5-4.5-10.6-7-17-7s-12.5 2.5-17 7l-96 96c-9.4 9.4-9.4 24.6 0 33.9s24.6 9.4 33.9 0l55-55V232H152 104 24c-13.3 0-24 10.7-24 24s10.7 24 24 24h80V430.1L49 375c-9.4-9.4-24.6-9.4-33.9 0s-9.4 24.6 0 33.9l96 96c9.4 9.4 24.6 9.4 33.9 0zm7-313V56c0-13.3-10.7-24-24-24s-24 10.7-24 24V192h48zM296 320V456c0 13.3 10.7 24 24 24s24-10.7 24-24V320H296zm232-80c17.7 0 32 14.3 32 32v48H496V272c0-17.7 14.3-32 32-32zm-80 32v48c-17.7 0-32 14.3-32 32V480c0 17.7 14.3 32 32 32H608c17.7 0 32-14.3 32-32V352c0-17.7-14.3-32-32-32V272c0-44.2-35.8-80-80-80s-80 35.8-80 80z"/></svg>
